X:1
T:Title
%%score [ 1 2 3 4 ]
L:1/8
Q:1/4=170
M:3/2
K:C
V:1 treble nm="Soprano" snm="S"
V:2 treble nm="Alto" snm="A"
V:3 treble-8 nm="Tenor" snm="T"
V:4 bass nm="Bass" snm="B"
V:1
 G4 | G8 A4 | B8 A4 | G8 G4 | G8 B4 | (d3 B A4) G4 | A8 c4 | B8 B4 | (c2 B2 A4) G4 | c8 G4 | %10
w: Now|shall my|in- ward|joy a-|rise, And|burst _ _ in-|to a|song; Al-|migh- * * ty|love in-|
 (c2 G2 A4) G4 | G8 E4 | (E3 F G4) (G2 E2) | A4 G8 | G8 |] %15
w: spires _ _ my|heart, And|plea- * * sure _|tunes my|tongue.|
V:2
 C4 | C8 (E2 C2) | D8 C4 | (C4 D4) C4 | D8 D4 | (C2 E2 D4) C4 | F8 G4 | G8 G4 | (G4 F4) D4 | %9
w: Now|shall my _|in- ward|joy _ a-|rise, And|burst _ _ in-|to a|song; Al-|migh- * ty|
 C8 C4 | (C4 D4) (E2 C2) | D8 C4 | (C4 D4) C4 | C4 B,8 | C8 |] %15
w: love in-|spires _ my _|heart, And|plea- * sure|tunes my|tongue.|
V:3
 C4 | (E2 F2 G4) c4 | (B2 A2 G4) C4 | (E4 F4) E4 | D8 D4 | (E4 F4) G4 | (c4 d4) e4 | d8 d4 | %8
w: Now|shall _ _ my|in- * * ward|joy _ a-|rise, And|burst _ in-|to _ a|song; Al-|
 (e2 d2 c4) B4 | (c2 B2 A4) G4 | (A2 G2 F4) E4 | D8 G4 | (A2 c2 B2 A2) G4 | (A2 F2) (E4 D4) | C8 |] %15
w: migh- * * ty|love _ _ in-|spires _ _ my|heart, And|plea- * * * sure|tunes _ my _|tongue.|
V:4
 C,4 | C,8 A,,4 | G,,8 A,,4 | (C,4 B,,4) C,4 | G,,8 G,,4 | (C,4 D,4) E,4 | (F,3 E, D,4) C,4 | %7
w: Now|shall my|in- ward|joy _ a-|rise, And|burst _ in-|to _ _ a|
 [G,,G,]8 [G,,G,]4 | (C,4 F,4) G,4 | (A,2 G,2 F,4) E,4 | (F,2 E,2 D,4) C,4 | G,,8 C,4 | %12
w: song; Al-|migh- * ty|love _ _ in-|spires _ _ my|heart, And|
 (A,,4 G,,4) C,4 | F,,4 G,,8 | [C,,C,]8 |] %15
w: plea- * sure|tunes my|tongue.|

